X:4676
T:Ecko Dance. GS.046
M:6/8
L:1/8
Q:110
S:George Spencer m/s, Leeds,1831
R:Quadrille
O:England
A:Leeds
H:1831
Z:vmp.Cherri Graebe
K:F major
c | c=Bc AFc | cBc= BGc | c=Bc ^c2d | G2A AFc | c=Bc AFB |! c=Bc BFc | c
=Bc dBG |
 EFG F2 || c | "qu"f2 f fef | a2ge2c |! "qu"d2e ede | gfe f2c | f2f fef
|
a2ge2c | e2e ede | gfe f2 ||



Xuacu Amieva 60
M:4/4
L:1/8
Q:1/4=63
K:Cm
|"Cm"C3 E G3 G|"Fm"A2 "Gm"B2 "Fm"~A2 "Cm"G2|"Cm"G3 A F3 G|"Cm"E2 "Fm"F2 "Cm"~E2 "Gm"D2|
|"Cm"C3 E G3 G|"Fm"A2 "Gm"B2 "Fm"~A2 "Cm"G2|"Cm"G3 A "Gm"B3 c|"Gm"B2 "Fm"~A2 "Cm"G4|
|"Cm"G3 A "Fm"F3 G|"Cm"E2 "Fm"F2 "Cm"~E2 "Gm"D2|"Cm"G3 A "Fm"F3 G|"Cm"E2 "Fm"F2 "Gm"D4|
|"Cm"c3 c "Gm"B3 c|"Gm"B2 "Fm"~A2 "Cm"G4|"Cm"G3 A G3 A|"Cm"G2 "Fm"F2 "Cm"E~D C2|
|"Cm"C3 E G3 G|"Fm"A2 "Cm"C2 G4|"Cm"c2 "Gm"~d2 "Cm"G3 A|"Cm"G2 "Fm"F2 "Cm"EF GA|
|"Cm"G4 G2 G2|"Cm"e3 e "Gm"d2 "Cm"c2|"G"=Bc "Gm"de d4|
|"Cm"c2 cc "Gm"B2 B2|"Cm"cc cc "Gm"B4|"Cm"~GF EF G2 G2|
|"Cm"~GF EF "Gm"D2 D2|"Fm"AA AA "Cm"G4|"G"=BB BB "Cm"c4|



